dist/images/p-s-second-section/search.svg

<svg width="20" height="22" viewBox="0 0 20 22" fill="none" xmlns="http://www.w3.org/2000/svg">
<path fill-rule="evenodd" clip-rule="evenodd" d="M13.0519 14.2051C13.168 14.0831 13.3058 13.9863 13.4576 13.9202C13.6093 13.8542 13.772 13.8202 13.9363 13.8202C14.1005 13.8202 14.2632 13.8542 14.4149 13.9202C14.5667 13.9863 14.7045 14.0831 14.8206 14.2051L19.6331 19.2583C19.8677 19.5044 19.9995 19.8382 19.9996 20.1864C19.9998 20.5346 19.8681 20.8685 19.6338 21.1148C19.3994 21.3611 19.0814 21.4995 18.7498 21.4996C18.4182 21.4997 18.1002 21.3615 17.8656 21.1154L13.0531 16.0623C12.9369 15.9404 12.8447 15.7957 12.7818 15.6363C12.7189 15.477 12.6865 15.3062 12.6865 15.1337C12.6865 14.9612 12.7189 14.7904 12.7818 14.6311C12.8447 14.4718 12.9369 14.327 13.0531 14.2051H13.0519Z" fill="#BDBDBD"/>
<path fill-rule="evenodd" clip-rule="evenodd" d="M8.125 16.25C9.02784 16.25 9.92184 16.0633 10.7559 15.7005C11.5901 15.3377 12.348 14.806 12.9864 14.1357C13.6248 13.4654 14.1312 12.6696 14.4767 11.7937C14.8222 10.9179 15 9.97923 15 9.03125C15 8.08327 14.8222 7.14457 14.4767 6.26875C14.1312 5.39294 13.6248 4.59715 12.9864 3.92682C12.348 3.2565 11.5901 2.72477 10.7559 2.36199C9.92184 1.99922 9.02784 1.8125 8.125 1.8125C6.30164 1.8125 4.55295 2.57304 3.26364 3.92682C1.97433 5.2806 1.25 7.11672 1.25 9.03125C1.25 10.9458 1.97433 12.7819 3.26364 14.1357C4.55295 15.4895 6.30164 16.25 8.125 16.25ZM16.25 9.03125C16.25 11.2939 15.394 13.4638 13.8702 15.0638C12.3465 16.6637 10.2799 17.5625 8.125 17.5625C5.97012 17.5625 3.90349 16.6637 2.37976 15.0638C0.856024 13.4638 0 11.2939 0 9.03125C0 6.76862 0.856024 4.59867 2.37976 2.99875C3.90349 1.39883 5.97012 0.5 8.125 0.5C10.2799 0.5 12.3465 1.39883 13.8702 2.99875C15.394 4.59867 16.25 6.76862 16.25 9.03125Z" fill="#BDBDBD"/>
</svg>

<svg width="20" height="22" fill="none" xmlns="http://www.w3.org/2000/svg"><path fill-rule="evenodd" clip-rule="evenodd" d="M13.052 14.205c.116-.122.254-.219.406-.285a1.2 1.2 0 011.363.285l4.812 5.053c.235.246.367.58.367.928 0 .349-.132.683-.366.929a1.22 1.22 0 01-.884.385 1.22 1.22 0 01-.884-.385l-4.813-5.053a1.318 1.318 0 01-.271-.426 1.37 1.37 0 01.271-1.43h-.001z" fill="#BDBDBD"/><path fill-rule="evenodd" clip-rule="evenodd" d="M8.125 16.25a6.58 6.58 0 002.63-.55 6.863 6.863 0 002.231-1.564 7.252 7.252 0 001.49-2.342A7.533 7.533 0 0015 9.03c0-.948-.178-1.886-.523-2.762a7.253 7.253 0 00-1.49-2.342 6.863 6.863 0 00-2.231-1.565 6.592 6.592 0 00-2.631-.55c-1.823 0-3.572.761-4.861 2.115C1.974 5.28 1.25 7.117 1.25 9.03c0 1.915.724 3.75 2.014 5.105 1.289 1.354 3.038 2.114 4.861 2.114zm8.125-7.219c0 2.263-.856 4.433-2.38 6.033-1.523 1.6-3.59 2.498-5.745 2.498-2.155 0-4.222-.898-5.745-2.498C.856 13.464 0 11.294 0 9.03 0 6.77.856 4.6 2.38 3 3.903 1.399 5.97.5 8.125.5c2.155 0 4.222.899 5.745 2.499 1.524 1.6 2.38 3.77 2.38 6.032z" fill="#BDBDBD"/></svg>
